X: 24992
T: Maid Of The Mill
R: jig
M: 6/8
K: Gmajor
|:D|G>FG B>AG|A>Bc d>BG|d>cB c>Bc|A>FD D>EF|
G>FG B>AG|A>Bc d>BG|d>cB A>GF|G3 G2:|
|:B/c/|d>^cd d>fg|c>AB c>dc|A>Bc d>ed|G3 F>ED|
G>FG B>AG|A>Bc d>BG|d>cB A>GF|G3 G2:|

